X:350
T:El Rey de Francia
Z:Jack Campin, http://www.campin.me.uk/
F:Jack Campin's Nine-Note Tunebook
% last edit 03-02-2013
M:2/4
L:1/8
Q:1/4=120
K:DMin
 D2 |D4   | A3    G |(GF)  (FG)| A4-       |A2
(AB)|d3  c|(cA) (AG)|(GF)  (EG)|(GA/G/) F2-|F2
 F2 |F2 E2| A2  (GF)|(FG/F/ ED)| C4-       |C2
(DE)|F2 E2| A2  (GF)| F2   (ED)| D4-       |D2|]

